icons/svgs/location-minus-outline.svg

<svg width="24" height="24" viewBox="0 0 24 24" fill="none" xmlns="http://www.w3.org/2000/svg">
<path d="M18.125 9.5C18.125 6.41406 15.5859 3.875 12.5 3.875C9.375 3.875 6.875 6.41406 6.875 9.5C6.875 10.0078 7.03125 10.75 7.46094 11.7656C7.85156 12.7031 8.4375 13.7969 9.10156 14.8906C10.2344 16.6875 11.5234 18.4062 12.5 19.6562C13.4375 18.4062 14.7266 16.6875 15.8594 14.8906C16.5234 13.7969 17.1094 12.7031 17.5 11.7656C17.9297 10.75 18.125 10.0078 18.125 9.5ZM20 9.5C20 12.9375 15.4297 18.9922 13.3984 21.5312C12.9297 22.1172 12.0312 22.1172 11.5625 21.5312C9.57031 18.9922 5 12.9375 5 9.5C5 5.35938 8.35938 2 12.5 2C16.6406 2 20 5.35938 20 9.5ZM9.6875 8.5625H15.3125C15.8203 8.5625 16.25 8.99219 16.25 9.5C16.25 10.0469 15.8203 10.4375 15.3125 10.4375H9.6875C9.14062 10.4375 8.75 10.0469 8.75 9.5C8.75 8.99219 9.14062 8.5625 9.6875 8.5625Z" fill="black"/>
</svg>

<svg xmlns="http://www.w3.org/2000/svg" width="24" height="24" fill="currentColor" class="icon-location-minus-outline" viewBox="0 0 24 24">
  <mask id="a" width="15" height="20" x="5" y="2" maskUnits="userSpaceOnUse" style="mask-type:alpha">
    <path d="M18.125 9.5c0-3.086-2.54-5.625-5.625-5.625A5.626 5.626 0 0 0 6.875 9.5c0 .508.156 1.25.586 2.266.39.937.976 2.03 1.64 3.125 1.133 1.797 2.422 3.515 3.399 4.765.938-1.25 2.227-2.968 3.36-4.765.663-1.094 1.25-2.188 1.64-3.125.43-1.016.625-1.758.625-2.266M20 9.5c0 3.438-4.57 9.492-6.602 12.031a1.178 1.178 0 0 1-1.835 0C9.57 18.992 5 12.938 5 9.5 5 5.36 8.36 2 12.5 2S20 5.36 20 9.5M9.688 8.563h5.624a.95.95 0 0 1 .938.937c0 .547-.43.938-.937.938H9.686c-.546 0-.937-.391-.937-.938 0-.508.39-.937.938-.937"/>
  </mask>
  <g mask="url(#a)">
    <path d="M0 0h24v24H0z"/>
  </g>
</svg>
